Papirus-nordic/24x24/places/folder-red-google-drive.svg

<svg xmlns="http://www.w3.org/2000/svg" width="24" height="24" version="1"><rect width="20" height="12" x="2" y="9.5" rx="1" ry="1" opacity=".2"/><path d="M2 17c0 .554.446 1 1 1h18c.554 0 1-.446 1-1V6c0-.554-.446-1-1-1H11V4c0-.554-.446-1-1-1H3c-.554 0-1 .446-1 1" fill="#ae4f58"/><rect width="20" height="12" x="2" y="8.5" rx="1" ry="1" opacity=".2"/><rect width="16" height="8" x="4" y="7" rx="1" ry="1" fill="#e4e4e4"/><rect width="20" height="12" x="2" y="9" rx="1" ry="1" fill="#bf616a"/><path d="M3 3c-.554 0-1 .446-1 1v.5c0-.554.446-1 1-1h7c.554 0 1 .446 1 1V4c0-.554-.446-1-1-1zm8 2v.5h10c.554 0 1 .446 1 1V6c0-.554-.446-1-1-1z" opacity=".1" fill="#fff"/><g fill="#974a4d"><path d="M16 15.48L13.333 11H10.75l2.5 4.48zM11.25 15.97L10 18h4.666L16 15.97zM10.5 11.5L8 16l1.333 2 2.517-4z"/></g></svg>

<svg xmlns="http://www.w3.org/2000/svg" width="24" height="24" version="1">
 <rect style="opacity:0.2" width="20" height="12" x="2" y="9.5" rx="1" ry="1"/>
 <path style="fill:#ae4f58" d="M 2,17 C 2,17.554 2.446,18 3,18 H 21 C 21.554,18 22,17.554 22,17 V 6 C 22,5.446 21.554,5 21,5 H 11 V 4 C 11,3.446 10.554,3 10,3 H 3 C 2.446,3 2,3.446 2,4"/>
 <rect style="opacity:0.2" width="20" height="12" x="2" y="8.5" rx="1" ry="1"/>
 <rect style="fill:#e4e4e4" width="16" height="8" x="4" y="7" rx="1" ry="1"/>
 <rect style="fill:#bf616a" width="20" height="12" x="2" y="9" rx="1" ry="1"/>
 <path style="opacity:0.1;fill:#ffffff" d="M 3,3 C 2.446,3 2,3.446 2,4 V 4.5 C 2,3.946 2.446,3.5 3,3.5 H 10 C 10.554,3.5 11,3.946 11,4.5 V 4 C 11,3.446 10.554,3 10,3 Z M 11,5 V 5.5 H 21 C 21.554,5.5 22,5.946 22,6.5 V 6 C 22,5.446 21.554,5 21,5 Z"/>
 <g>
  <path style="fill:#974a4d" d="M 16,15.48 13.333,11 H 10.75 L 13.25,15.48 Z"/>
  <path style="fill:#974a4d" d="M 11.25,15.97 9.9999,18 H 14.666 L 16,15.97 Z"/>
  <path style="fill:#974a4d" d="M 10.5,11.5 8,16 9.3333,18 11.85,14 Z"/>
 </g>
</svg>
